src/icons/load-d.svg

<svg xmlns="http://www.w3.org/2000/svg" width="512" height="512" viewBox="0 0 512 512">
    <path d="M421 234.5h-75c-8.2 0-15 6.8-15 15s6.8 15 15 15h75c8.2 0 15-6.8 15-15s-6.8-15-15-15zm-240 15c0-8.2-6.8-15-15-15H91c-8.2 0-15 6.8-15 15s6.8 15 15 15h75c8.2 0 15-6.8 15-15zm75 75c-8.2 0-15 6.8-15 15v75c0 8.2 6.8 15 15 15s15-6.8 15-15v-75c0-8.2-6.8-15-15-15zm0-255c-8.2 0-15 6.8-15 15v75c0 8.2 6.8 15 15 15s15-6.8 15-15v-75c0-8.2-6.8-15-15-15zM321 212c4.2 7.2 13.3 9.7 20.5 5.5l65-37.5c7.2-4.2 9.7-13.3 5.5-20.5-4.2-7.2-13.3-9.7-20.5-5.5l-64.9 37.5c-7.4 4.2-9.7 13.2-5.6 20.5zm-130 75c-4.2-7.2-13.3-9.7-20.5-5.5l-65 37.5c-7.2 4.2-9.7 13.3-5.5 20.5 4.2 7.2 13.3 9.7 20.5 5.5l65-37.5c7.2-4.2 9.6-13.3 5.5-20.5zm123 32.9c-4.2-7.2-13.3-9.7-20.5-5.5-7.2 4.2-9.7 13.3-5.5 20.5l37.5 65c4.2 7.2 13.3 9.7 20.5 5.5 7.2-4.2 9.7-13.3 5.5-20.5l-37.5-65zM186.5 99.1c-4.2-7.2-13.3-9.7-20.5-5.5-7.2 4.2-9.7 13.3-5.5 20.5l37.5 65c4.2 7.2 13.3 9.7 20.5 5.5 7.2-4.2 9.7-13.3 5.5-20.5l-37.5-65zm107 85.4c7.2 4.2 16.3 1.7 20.5-5.5l37.5-65c4.2-7.2 1.7-16.3-5.5-20.6-7.2-4.2-16.3-1.7-20.5 5.5L288 164c-4.1 7.2-1.7 16.4 5.5 20.5zm-75 130c-7.2-4.2-16.3-1.7-20.5 5.5l-37.5 65c-4.2 7.2-1.7 16.3 5.5 20.5 7.2 4.2 16.3 1.7 20.5-5.5l37.5-65c4.1-7.2 1.7-16.4-5.5-20.5zm187.9 4.4l-65-37.5c-7.2-4.2-16.3-1.7-20.5 5.5-4.2 7.2-1.7 16.3 5.5 20.5l65 37.5c7.2 4.2 16.3 1.7 20.5-5.5 4.1-7.1 1.7-16.2-5.5-20.5zM105.6 180l65 37.5c7.2 4.2 16.3 1.7 20.5-5.5 4.3-7.2 1.7-16.3-5.5-20.5l-65-37.5c-7.2-4.2-16.3-1.7-20.5 5.5-4.2 7.2-1.7 16.3 5.5 20.5z"/>
</svg>

<?xml version="1.0" encoding="UTF-8"?>
<svg width="512px" height="512px" viewBox="0 0 512 512" version="1.1" xmlns="http://www.w3.org/2000/svg" xmlns:xlink="http://www.w3.org/1999/xlink">
    <!-- Generator: Sketch 62 (91390) - https://sketch.com -->
    <title>load-d</title>
    <desc>Created with Sketch.</desc>
    <g id="load-d" stroke="none" stroke-width="1" fill="none" fill-rule="evenodd">
        <path d="M421,234.5 L346,234.5 C337.8,234.5 331,241.3 331,249.5 C331,257.7 337.8,264.5 346,264.5 L421,264.5 C429.2,264.5 436,257.7 436,249.5 C436,241.3 429.2,234.5 421,234.5 Z M181,249.5 C181,241.3 174.2,234.5 166,234.5 L91,234.5 C82.8,234.5 76,241.3 76,249.5 C76,257.7 82.8,264.5 91,264.5 L166,264.5 C174.2,264.5 181,257.7 181,249.5 Z M256,324.5 C247.8,324.5 241,331.3 241,339.5 L241,414.5 C241,422.7 247.8,429.5 256,429.5 C264.2,429.5 271,422.7 271,414.5 L271,339.5 C271,331.3 264.2,324.5 256,324.5 Z M256,69.5 C247.8,69.5 241,76.3 241,84.5 L241,159.5 C241,167.7 247.8,174.5 256,174.5 C264.2,174.5 271,167.7 271,159.5 L271,84.5 C271,76.3 264.2,69.5 256,69.5 Z M321,212 C325.2,219.2 334.3,221.7 341.5,217.5 L406.5,180 C413.7,175.8 416.2,166.7 412,159.5 C407.8,152.3 398.7,149.8 391.5,154 L326.6,191.5 C319.2,195.7 316.9,204.7 321,212 Z M191,287 C186.8,279.8 177.7,277.3 170.5,281.5 L105.5,319 C98.3,323.2 95.8,332.3 100,339.5 C104.2,346.7 113.3,349.2 120.5,345 L185.5,307.5 C192.7,303.3 195.1,294.2 191,287 Z M314,319.9 C309.8,312.7 300.7,310.2 293.5,314.4 C286.3,318.6 283.8,327.7 288,334.9 L325.5,399.9 C329.7,407.1 338.8,409.6 346,405.4 C353.2,401.2 355.7,392.1 351.5,384.9 L314,319.9 Z M186.5,99.1 C182.3,91.9 173.2,89.4 166,93.6 C158.8,97.8 156.3,106.9 160.5,114.1 L198,179.1 C202.2,186.3 211.3,188.8 218.5,184.6 C225.7,180.4 228.2,171.3 224,164.1 L186.5,99.1 Z M293.5,184.5 C300.7,188.7 309.8,186.2 314,179 L351.5,114 C355.7,106.8 353.2,97.7 346,93.4 C338.8,89.2 329.7,91.7 325.5,98.9 L288,164 C283.9,171.2 286.3,180.4 293.5,184.5 Z M218.5,314.5 C211.3,310.3 202.2,312.8 198,320 L160.5,385 C156.3,392.2 158.8,401.3 166,405.5 C173.2,409.7 182.3,407.2 186.5,400 L224,335 C228.1,327.8 225.7,318.6 218.5,314.5 Z M406.4,318.9 L341.4,281.4 C334.2,277.2 325.1,279.7 320.9,286.9 C316.7,294.1 319.2,303.2 326.4,307.4 L391.4,344.9 C398.6,349.1 407.7,346.6 411.9,339.4 C416,332.3 413.6,323.2 406.4,318.9 Z M105.6,180 L170.6,217.5 C177.8,221.7 186.9,219.2 191.1,212 C195.4,204.8 192.8,195.7 185.6,191.5 L120.6,154 C113.4,149.8 104.3,152.3 100.1,159.5 C95.9,166.7 98.4,175.8 105.6,180 Z" id="Shape" fill="#000000" fill-rule="nonzero"></path>
    </g>
</svg>
